X:1
T:St. Agnes’ School
T:St. Agnes’ School
T:John Albert Jeffery, 1892
T:Public Domain Courtesy of the Cyber Hymnal™
C:John Albert Jeffery, 1892
Z:Public Domain
Z:Courtesy of the Cyber Hymnal™
%%score ( 1 2 ) ( 3 4 ) ( 5 6 ) ( 7 8 )
L:1/8
Q:1/4=115
M:4/4
K:Eb
V:1 treble 
V:2 treble 
V:3 bass 
V:4 bass 
V:5 treble 
V:6 treble 
V:7 bass 
V:8 bass 
V:1
 B2 | [Ee]3 G [Dd]2 [Cc]2 | [B,B]2 G2 E2 [DE]2 | [Cc]2 [EB]2 E[EF][EG][EA] | F6 [DB]2 | %5
 [Ee]3 [EG] [EGd]2 [Ec]2 | [DB]2 [DG]2 [CE]2 [Ec]2 | [DB]2 [B,G]2 [Ge]2 dc | B3 z G2 G2 | %9
 A3 G FGAB | G6 G2 | A3 G FGAc | B6 B2 | [Ee]3 G [Dd]2 [Cc]2 | [B,B]2 G2 E2 c2 | %15
 [GB]2 cd [Ee]2 E2 x | [EF]2 [DG]2 E2 |] %17
V:2
 x2 | x8 | x8 | x8 | E2 C2 D2 x2 | x8 | x8 | x6 G2 | G2 (^F2 =A) x3 | x8 | x8 | x8 | x8 | x8 | %14
 x6 EF | x2 A2 x5 | x6 |] %17
V:3
 B,2 | E3 G, D2 C2 | B,2 G,2 E,2 [E,G,]2 | A,2 [G,B,]2 C[A,C][G,C][F,C] | B,6 [B,,A,]2 | %5
 [C,G,]3 [C,C] [G,,B,]2 [A,,A,]2 | [B,,F,]2 [=B,,G,]2 [C,G,]2 [=A,,G,]2 | %7
 [D,G,]2 [E,G,]2 G,=A, [B,,B,][C,E] | [D,D]2 [D,C]2 [G,B,]2 G,2 | A,3 G, F,G,A,B, | G,6 G,2 | %11
 A,3 G, F,G,A,C | B,6 B,2 | E3 G, D2 C2 | B,2 G,2 E,2 CD | [G,E]2 [F,A,]2 G,3 z x | %16
 [B,,B,]2 [B,,A,]2 [E,G,]2 |] %17
V:4
 x2 | x8 | x8 | x8 | x8 | x8 | x8 | x4 C,2 x2 | x8 | x8 | x8 | x8 | x8 | x8 | x6 A,2 | %15
 x4 C,2 (C,2 =A,) | x6 |] %17
V:5
 B2 | [EGBe]3 G [Bd]2 [Ac]2 | [DFB]2 [DG]2 [CE]2 [_DE]2 | [CEc]2 [EB]2 z FGA | F6 [DB]2 | %5
 [Ee]3 [EG] [EGd]2 [Ec]2 | [DB]2 [DG]2 [CE]2 [Ec]2 | [DB]2 [B,G]2 [Ge]2 dc | B3 z G2 [Gceg]2 | %9
 [Acea]2 z2 [FBdf]2 z2 | [GBeg]2 [Begb]2 [c=egc']2 [Gcg]2 | [Acfa]2 z2 [Bdf]2 [cdc']2 | %12
 [Beb]2 [EAB]2 [EGB]2 [FB]2 | [EGe]3 [DG] [D^Fd]2 [DFc]2 | [DGB]2 [B,_DG]2 [A,CE]2 c2 | %15
 [GB]2 cd [Ee]2 E2 x | [EF]2 [DG]2 E2 |] %17
V:6
 x2 | x2 E4 x2 | x8 | x4 ([CE]2 [CE]2) | E2 C2 D2 x2 | x8 | x8 | x6 G2 | G2 (^F2 =A) x3 | x8 | x8 | %11
 x8 | x8 | x8 | x6 EF | x2 A2 x5 | x6 |] %17
V:7
 [B,,B,]2 | [E,B,]3 G, [B,D]2 [A,C]2 | [B,,F,B,]2 [B,,G,B,]2 [C,G,]2 [E,G,]2 | %3
 [A,,A,]2 [G,,B,]2 [C,G,][A,,A,] G,,F,, | [B,,B,]6 [B,,A,]2 | [C,G,]3 [C,C] [G,,B,]2 [A,,A,]2 | %6
 [B,,F,]2 [=B,,D,]2 [C,G,]2 [=A,,G,]2 | [D,G,]2 [E,G,]2 G,=A, [B,,B,][C,E] | %8
 [D,D]2 [D,C]2 [G,B,]2 [C,G,C]2 | [F,,F,A,C]2 z2 [B,,A,B,D]2 z2 | %10
 [E,,G,B,E]2 [D,,G,B,E]2 [C,,B,C=E]2 [=E,,G,B,C]2 | [F,,F,A,C]2 z2 [B,,B,D]2 [A,,A,DF]2 | %12
 [G,,G,EG]2 [F,B,]2 B,C [_D,_D]2 | G,3 z [=A,,D,=A,]2 [D,,D,A,]2 | %14
 [G,,D,G,]2 [E,,E,-]2 [A,,E,]2 CD | [G,,G,E]2 [F,,F,A,C]2 [C,G,C]2 G,=A, x | B,2 A,2 [E,,E,G,]2 |] %17
V:8
 x2 | E,,4 A,,4 | x8 | x8 | x8 | x8 | x8 | x4 C,2 x2 | x8 | x8 | x8 | x8 | x4 E,2 x2 | %13
 C,2 (B,,2 G,) x3 | x6 [A,,A,]2 | x6 C,2 x | B,,4 x2 |] %17

